svg/fluentui-system-icons/ic_fluent_mail_template_20_regular.svg

<svg width="20" height="20" viewBox="0 0 20 20" fill="none" xmlns="http://www.w3.org/2000/svg">
<path d="M2 4.5C2 3.11929 3.11929 2 4.5 2H13.5C14.8807 2 16 3.11929 16 4.5V8.03544C15.8367 8.01209 15.6698 8 15.5 8H15V4.5C15 3.67157 14.3284 3 13.5 3H4.5C3.67157 3 3 3.67157 3 4.5V13.5C3 14.3284 3.67157 15 4.5 15H6V15.5C6 15.6698 6.01209 15.8367 6.03544 16H4.5C3.11929 16 2 14.8807 2 13.5V4.5ZM13 7.5C13 7.77614 12.7761 8 12.5 8H7.5C7.22386 8 7 7.77614 7 7.5C7 7.22386 7.22386 7 7.5 7H12.5C12.7761 7 13 7.22386 13 7.5ZM5 5.5C5 5.22386 5.22386 5 5.5 5H12.5C12.7761 5 13 5.22386 13 5.5C13 5.77614 12.7761 6 12.5 6H5.5C5.22386 6 5 5.77614 5 5.5ZM7 11.5C7 10.1193 8.11929 9 9.5 9H15.5C16.8807 9 18 10.1193 18 11.5V15.5C18 16.8807 16.8807 18 15.5 18H9.5C8.11929 18 7 16.8807 7 15.5V11.5ZM9.5 10C8.76327 10 8.15059 10.5311 8.02398 11.2314L12.4999 13.9169L16.976 11.2313C16.8494 10.5311 16.2367 10 15.5 10H9.5ZM8 15.5C8 16.3284 8.67157 17 9.5 17H15.5C16.3284 17 17 16.3284 17 15.5V12.3831L12.7572 14.9288C12.5988 15.0238 12.401 15.0238 12.2427 14.9288L8 12.3832V15.5Z" fill="#212121"/>
</svg>

<svg xmlns="http://www.w3.org/2000/svg" width="20" height="20"><path d="M2 4.5A2.5 2.5 0 0 1 4.5 2h9A2.5 2.5 0 0 1 16 4.5v3.535A3.53 3.53 0 0 0 15.5 8H15V4.5A1.5 1.5 0 0 0 13.5 3h-9A1.5 1.5 0 0 0 3 4.5v9A1.5 1.5 0 0 0 4.5 15H6v.5c0 .17.012.337.035.5H4.5A2.5 2.5 0 0 1 2 13.5v-9Zm11 3a.5.5 0 0 1-.5.5h-5a.5.5 0 0 1 0-1h5a.5.5 0 0 1 .5.5Zm-8-2a.5.5 0 0 1 .5-.5h7a.5.5 0 0 1 0 1h-7a.5.5 0 0 1-.5-.5Zm2 6A2.5 2.5 0 0 1 9.5 9h6a2.5 2.5 0 0 1 2.5 2.5v4a2.5 2.5 0 0 1-2.5 2.5h-6A2.5 2.5 0 0 1 7 15.5v-4ZM9.5 10a1.5 1.5 0 0 0-1.476 1.231l4.476 2.686 4.476-2.686A1.5 1.5 0 0 0 15.5 10h-6ZM8 15.5A1.5 1.5 0 0 0 9.5 17h6a1.5 1.5 0 0 0 1.5-1.5v-3.117l-4.243 2.546a.5.5 0 0 1-.514 0L8 12.383V15.5Z"/></svg>
